X:1
T:Salve Regina
T:William Byrd (c.1540-1623)
T:Secunda pars
T:Salve Regina
T:© Choral Public Domain Library 2010
T:© Choral Public Domain Library 2010
T:© Choral Public Domain Library 2010
T:© Choral Public Domain Library 2010
T:© Choral Public Domain Library 2010
T:© Choral Public Domain Library 2010
T:© Choral Public Domain Library 2010
C:William Byrd (c.1540-1623)
Z:Secunda pars
Z:© Choral Public Domain Library 2010
%%score [ 1 2 3 4 ]
L:1/8
M:4/4
K:C
V:1 treble nm="Alto" snm="A."
V:2 treble-8 transpose=-12 nm="Tenor" snm="T."
V:3 treble-8 transpose=-12 nm="Tenor" snm="T."
V:4 bass nm="Bass" snm="B."
V:1
 [^Cd]2 |[M:4/2] G16 | G16 | A8 B8- | B8 A4 A4 | B6 A2 G2 F2 E4 | z4 c8 B4- | B4 A8 G4- | %8
w: |Sal-|ve|Re- gi-|* na, Re-|gi- * * * na,|Ma- ter|_ mi- se-|
 G4 ^F4 G4 E4 | ^F8 z4 A4- | A4 E4 G8 | c8 B8 | G4 B4 d8 | A4 B6 A2 G4 | ^F8 G6 A2 | %15
w: * ri- cor- di-|æ, vi-|* ta, dul-|ce- do,|et spes no-|stra sal- * *|ve, sal- *|
 B2 G2 A6 G2 G4- | G4 ^F4 G8 | G8 G4 G4 | A8 G4 G4- | G2 A2 B4 c6 c2 | B4 A4 A4 A4- | A2 G2 E4 F8 | %22
w: |* * ve.|Ad te cla-|ma- mus ex-|* u- les fi- li-|i Æ- væ, fi-|* li- i Æ-|
 E16 | z8 z4 D4 | G8 A4 B4 | c8 B8 | z4 A4 ^G8 | A8 z4 A4- | A4 _B8 A4- | A2 G2 G8 F4 | E8 z8 | %31
w: væ,|ad|te su- spi-|ra- mus,|ge- men-|tes et|_ flen- tes,|_ et flen- *|tes|
 z4 A4 F4 G4- | G4 A4 _B8 | A8 A6 G2 | A2 B2 c6 B2 A4 | G8 z8 | z4 A4 G4 A4- | A4 B4 c8 | %38
w: in hac la-|* chry- ma-|rum val- *||le,|in hac la-|* chry- ma-|
 B8 z4 A4- | A2 GF E2 F2 G2 F2 E2 D2 | ^C4 D8 C4 | !fermata!D16 || z16 | z16 | z16 | z16 | z16 | %47
w: rum val-||le, val- *|le.||||||
 z16 | z16 | z16 | z16 | z16 | z16 | z16 | z16 | z16 | z16 | z16 | z16 | z16 | z8 G8 | ^F8 G8 | %62
w: |||||||||||||Et|Je- sum|
 A6 G2 A2 B2 c4- | c4 B4 c8 | z16 | A8 B4 c4- | c4 B4 A8 | G16 | z4 E6 F2 G4 | A4 B4 c6 c2 | %70
w: be- ne- di- * *|* * ctum,||fru- ctum ven-|* tris tu-|i,|no- bis post|hoc ex- i- li-|
 G8 z4 D4 | G12 E4 | z8 z4 G4 | c6 A2 B2 c2 B4- | B4 A8 ^G4 | A8 A8- | A8 G8- | G8 G8 | A8 B8- | %79
w: um o-|sten- de,|o-|sten- * * * *||de. O|_ cle-|* mens,|O pi-|
 B8 A8 | z4 d4 ^c4 c4 | d8 B4 G4 | A8 G8 | z4 G4 ^F4 F4 | G8 E4 E4 | A4 D4 z4 d4 | ^c4 c4 d8 | %87
w: * a,|O Dul- cis,|Vir- go Ma-|ri- a,|O Dul- cis|Vir- go Ma-|ri- a, O|Dul- cis Vir-|
 A8 A4 d4- | d2 c2 B4 A4 A4- | A4 B6 A2 G4 | ^F2 F2 G6 =F2 E4 | D6 E2 ^F2 G2 A4- | A2 G2 G8 ^F4 | %93
w: go Ma- ri-|* * * a, Ma-|* ri- * *|a, Ma- ri- * *|a, Vir- go Ma- ri-||
 !fermata!G16 |] %94
w: a.|
V:2
 [^Fa]2 |[M:4/2] z16 | z16 | z8 G6 A2 | B2 G2 d8 ^c4 | d4 e6 d2 c2 B2 | A4 A4 e4 d4 | z8 c8 | %8
w: |||Sal- *|* * * ve|Re- gi- * * *|na, Re- gi- na,|Ma-|
 B4 A2 d4 ^cB c4 | d4 B4 A8 | z16 | z4 e8 d4 | e4 g8 d4 | z4 G8 B4 | d8 G2 e4 d2 | %15
w: ter mi- se- ri- * *|cor- di- æ,||vi- ta,|dul- ce- do,|et spes|no- stra sal- *|
 d2 cB c6 B2 B2 AG | A8 B8 | d8 e4 e4 | f8 e4 e4- | e2 f2 d4 e6 e2 | d4 f6 ed c2 d2 | e8 z8 | %22
w: |* ve.|Ad te cla-|ma- mus ex-|* u- les fi- li-|i Æ- * * * *|væ,|
 z4 G4 c8 | d4 e4 f8 | e4 e4 c4 d4 | e4 e4 f4 e4- | e4 d4 e8 | A8 z4 e4 | f8 e4 f4- | %29
w: ad te|su- spi- ra-|mus, ge- men- *|tes, et flen- *||tes, ge-|men- tes, et|
 f2 e2 d4 ^c4 d4- | d2 ^cB c4 d8 | e4 c4 d8 | e4 f8 e4 | f6 d2 e4 f4 | z4 e4 c4 d4- | d4 e4 f8 | %36
w: _ flen- * tes, et|_ flen- * * tes|in hac la-|chry- ma- rum|val- * * le,|in hac la-|* chry- ma-|
 e8 e4 f4 | d8 z4 e2 f2 | g2 f2 e2 d2 ^c2 d2 e4 | z4 c8 B4 | A4 A2 B2 c2 B2 A2 G2 | %41
w: rum val- *|le, val- *|* * * * * * le,|val- *|le, val- * * * * *|
 !fermata!^F16 || d12 B4 | e8 ^c8 | d8 e4 ^f4- | f4 d4 g6 =f2 | e2 d2 c2 B2 A4 d4- | d4 ^c4 d8- | %48
w: le.|E- ja|er- go,|Ad- vo- ca-|* ta no- *||* * stra;|
 d8 z8 | A6 B2 c8 | B4 B4 c4 d4 | e8 d4 g4- | g4 ^f4 g8 | z4 d4 e4 A4 | d3 c B2 A2 G4 A4 | %55
w: _|il- los tu-|os mi- se- ri-|cor- des o-|* cu- los|ad nos con-|ver- * * * te, ad|
 ^F4 G4 B2 c2 d4- | d2 cB c2 A2 B8 | A8 z4 g4 | a4 ^f4 g3 =f e2 d2 | c2 e4 d2 c3 B A2 c2 | %60
w: nos con- ver- * *||te, ad|nos con- ver- * * *||
 B8 d4 d4- | d4 d4 d6 e2 | f8 c8 | d8 e8 | f8 e4 e4- | e4 d4 z8 | d8 e4 f4- | f4 e4 d8 | %68
w: te; Et Je-|* sum, be- ne-|di- ctum,|fru- ctum|ven- tris tu-|* i,|fru- ctum ven-|* tris tu-|
 c4 c6 d2 e4 | f4 d4 c6 d2 | e8 d8 | e6 d2 c2 B2 c4- | c4 B2 A2 B8 | z4 e4 g6 f2 | e2 d2 e4 e8 | %75
w: i, no- bis post|hoc ex- i- li-|um o-|sten- * * * *|* * * de,|o- sten- *|* * * de.|
 z4 ^c4 d6 e2 | f2 d2 f6 ed e4 | d8 z4 d4 | d6 c2 B2 A2 G4 | z4 g4 ^f4 f4 | g8 e4 A4- | %81
w: O cle- *||mens, O|pi- * * * a,|O Dul- cis|Vir- go Ma-|
 A4 d6 c2 B4 | A4 d4 B4 B4 | c8 A4 A4 | B4 G4 z4 g4 | ^f4 f4 g8 | e4 e4 f6 ed | e2 f2 e4 d8 | %88
w: * ri- * *|a, O Dul- cis|Vir- go Ma-|ri- a, O|Dul- cis Vir-|go Ma- ri- * *|* * * a,|
 z4 d4 ^c4 c4 | d8 B4 d4- | d4 e6 d2 c4 | B8 A8 | d16 | !fermata!B16 |] %94
w: O Dul- cis|Vir- go Ma-|* ri- * *|a, Ma-|ri-|a.|
V:3
 [Ce]2 |[M:4/2] z8 G6 A2 | B2 G2 c8 B4 | c4 d6 c2 B2 A2 | G8 z8 | G8 E8 | ^F8 G8 | D8 E6 ^F2 | %8
w: |Sal- *|* * * ve|Re- gi- * * *|na,|Ma- ter|mi- se-|ri- cor- *|
 G4 D4 E8 | z4 D8 D4 | A4 c8 B4 | A8 G8 | z4 G8 B4 | d8 G8 | z4 D4 E4 G4- | G4 C4 E8 | D8 G8 | %17
w: * di- æ,|vi- ta,|dul- ce- *|* do,|et spes|no- stra,|et spes no-|* stra, sal-|* ve.|
 B8 B4 c4 | c8 c8 | z4 G6 G2 A4 | B3 c d6 c2 A4 | B4 c8 B4 | c8 z4 C4 | G8 A4 B4 | c6 B2 A4 G4- | %25
w: Ad te cla-|ma- mus|ex- u- les|fi- * * li- i|Æ- * *|væ, ad|te su- spi-|ra- * mus, ge-|
 G4 A8 ^G4 | A8 z4 E4 | F8 E8 | z4 D4 ^C8 | D4 D4 E4 F2 G2 | A4 A4 ^F4 G4- | G4 A4 _B8- | %32
w: * men- *|tes, ge-|men- tes,|et flen-|tes, et flen- * *|tes in hac la-|* chry- ma-|
 B4 A4 G8 | F8 z8 | A4 G4 A8 | B4 c8 B4 | c8 c4 F2 G2 | A2 G2 G6 ^FG A4 | %38
w: * rum val-|le,|in hac la-|chry- ma- rum|val- le, val- *|* * * * * le,|
 E2 F2 G2 F2 E2 D2 ^C2 D2 | E4 C4 E4 G4- | G4 F4 E4 A4 | !fermata!A16 || z8 G8- | G4 E4 A8 | %44
w: val- * * * * * * *|le, la- chry- ma-|* rum val- *|le.|E-|* ja er-|
 ^F4 G8 A4 | B8 G4 c4- | c2 B2 A2 G2 ^F2 E2 F4 | G4 A8 A4 | B8 G4 c4- | c2 B2 A2 G2 ^F2 E2 F4 | %50
w: go, Ad- vo-|ca- ta no-||stra, Ad- vo-|ca- ta no-||
 G8 z8 | G6 A2 B8 | A8 z4 G4 | A4 B4 c8 | B4 d8 ^c4 | d8 z4 G4 | A4 ^F4 G3 =F E2 D2 | C4 D4 z4 B4 | %58
w: stra;|il- los tu-|os mi-|se- ri- cor-|des o- cu-|los ad|nos con- ver- * * *|* te, ad|
 c4 A4 B3 A G2 F2 | E2 C2 G8 ^F4 | G8 B8 | A8 B8 | c12 G4 | A4 G2 F2 G4 A4- | A4 B4 c4 B4 | A8 G8 | %66
w: nos con- ver- * * *||te; Et|Je- sum|be- ne-|di- * * ctum, fru-|* ctum ven- tris|tu- i,|
 z4 B4 c4 d4- | d2 c2 c8 B4 | c16 | z8 z4 E4- | E2 F2 G4 A4 B4 | c6 B2 G8 | z4 E4 G6 F2 | %73
w: fru- ctum ven-|* tris tu- *|i,|no-|* bis post hoc ex-|i- li- um|o- sten- *|
 E2 D2 E4 z4 G4 | c6 A2 B2 c2 B4 | A8 z4 D4 | d6 c2 B2 G2 c4- | c2 BA B4 c4 B4 | A4 d4 d6 c2 | %79
w: * * de, o-|sten- * * * *|de. O|cle- * * * *||mens, O pi- *|
 B2 A2 G4 z4 A4 | G4 G4 A8 | ^F4 D4 G8 | D8 d8 | e8 d8 | z4 d4 ^c4 c4 | d8 B4 G4 | A8 D8 | %87
w: * * a, O|Dul- cis Vir-|go Ma- ri-|a, Ma-|ri- a,|O Dul- cis|Vir- go Ma-|ri- a,|
 z4 A4 ^F4 F4 | G8 E4 E4 | D8 G8 | z8 G6 A2 | B2 c2 d8 c4 | B4 A2 G2 A8 | !fermata!G16 |] %94
w: O Dul- cis|Vir- go Ma-|ri- a,|Vir- *|* * go Ma-|ri- * * *|a.|
V:4
 [F,,A,]2 |[M:4/2] z16 | z16 | z16 | z16 | z16 | z16 | z16 | z16 | z16 | z16 | z16 | z16 | z16 | %14
w: ||||||||||||||
 z16 | z16 | z16 | G,8 E,4 C,4 | F,8 C,8 | z8 C,6 C,2 | D,8 F,6 F,2 | E,4 C,4 D,8 | C,16 | z16 | %24
w: |||Ad te cla-|ma- mus|ex- u-|les fi- li-|i Æ- *|væ,||
 z8 z4 G,,4 | C,8 D,4 E,4 | F,8 E,8 | z4 D,4 ^C,8 | D,8 z4 A,,4 | _B,,8 A,,8 | A,,8 D,4 =B,,4 | %31
w: ad|te su- spi-|ra- mus,|ge- men-|tes, et|flen- tes,|et flen- *|
 C,8 z8 | z16 | z4 D,4 C,4 D,4- | D,4 E,4 F,8- | F,4 E,4 D,8 | C,4 A,,2 B,,2 C,2 B,,2 A,,2 G,,2 | %37
w: tes||in hac la-|* chry- ma-|* rum val-|le, val- * * * * *|
 F,,4 G,,4 A,,8 | G,,8 A,,8 | C,12 G,,4 | A,,16 | !fermata!D,16 || z16 | z16 | z8 z4 D,4- | %45
w: * * le,|la- chry-|ma- rum|val-|le.|||E-|
 D,4 B,,4 E,8 | A,,8 D,8 | E,4 ^F,8 D,4 | G,6 F,2 E,2 D,2 C,2 B,,2 | A,,16 | z8 A,,6 B,,2 | %51
w: * ja er-|go, Ad-|vo- ca- ta|no- * * * * *|stra;|il- los|
 C,8 B,,4 G,,4 | C,4 D,4 E,8 | D,4 G,8 ^F,4 | G,4 D,4 E,4 A,,4 | D,3 C, B,,2 A,,2 G,,4 B,,4 | %56
w: tu- os mi-|se- ri- cor-|des o- cu-|los ad nos con-|ver- * * * * *|
 A,,8 z4 G,4 | A,4 ^F,4 G,3 =F, E,2 D,2 | C,2 A,,2 D,4 G,,4 C,4- | C,4 B,,4 A,,8 | G,,8 G,8 | %61
w: te, ad|nos con- ver- * * *|te, ad nos con- ver-||te; Et|
 D,8 G,8 | F,12 E,4 | D,8 C,8 | D,8 E,8 | F,8 E,8 | G,12 F,4 | G,16 | z16 | z8 z4 C,4- | %70
w: Je- sum|be- ne-|di- ctum,|fru- ctum|ven- tris|tu- *|i,||no-|
 C,2 D,2 E,4 F,4 D,4 | C,6 D,2 E,4 E,4 | G,12 E,4 | z4 A,,4 E,8- | E,16 | A,,8 z8 | z8 z4 C,4 | %77
w: * bis post hoc ex-|i- li- um o-|sten- de,|o- sten-||de.|O|
 G,6 F,2 E,2 C,2 G,4- | G,2 ^F,E, F,4 G,8 | G,,8 D,6 C,2 | B,,2 A,,2 G,,4 z8 | z8 z4 G,4 | %82
w: cle- * * * *|* * * * mens,|O pi- *|* * a,|O|
 ^F,4 F,4 G,8 | E,4 C,4 D,8 | G,,4 G,,4 A,,4 E,4 | D,8 z8 | z8 z4 D,4 | ^C,4 C,4 D,8 | %88
w: Dul- cis Vir-|go Ma- ri-|a, Ma- ri- *|a,|O|Dul- cis Vir-|
 B,,4 G,,4 A,,6 G,,2 | ^F,,4 G,,6 A,,2 B,,2 C,2 | D,4 C,6 D,2 E,2 F,2 | G,4 G,,4 D,8- | D,16 | %93
w: go Ma- ri- *|a, Vir- * * *|go, Vir- * * *|go Ma- ri-||
 !fermata!G,,16 |] %94
w: a.|

